build/img/footer__item--twitter.svg

<svg width="54" height="54" viewBox="0 0 54 54" fill="none" xmlns="http://www.w3.org/2000/svg">
<circle opacity="0.1" cx="27" cy="27" r="25.5" fill="white" stroke="#283645" stroke-width="3"/>
<path d="M29.5641 20.1689C30.2458 19.9538 30.9837 19.9439 31.6719 20.1405C32.3602 20.3371 32.9633 20.7301 33.3947 21.2632C34.1053 21.0538 34.8055 20.816 35.5263 20.6066C35.5164 20.9258 35.4299 21.2391 35.2732 21.5237C35.1165 21.8084 34.8935 22.0574 34.6201 22.2528C34.8726 22.2788 35.1281 22.2511 35.3673 22.172C35.6064 22.0928 35.8228 21.9642 36 21.7961C35.901 22.2099 35.6999 22.597 35.4123 22.9271C35.1247 23.2572 34.7585 23.5214 34.3421 23.6992C34.095 29.9699 30.9748 34.1662 23.6533 33.9949H23.1487C22.7059 33.9949 18.7311 33.5667 18 32.2441C19.752 32.4899 21.5389 32.0976 22.984 31.1498C21.9542 30.8643 20.1316 30.7026 19.8227 28.4093C20.2108 28.5434 20.6321 28.5731 21.0378 28.495C19.7609 27.7052 18.3398 27.0391 18.4222 24.9933C18.8196 25.2988 19.3269 25.4551 19.8432 25.431C19.1018 25.2026 17.7529 22.3099 18.8959 20.8255C20.8215 22.5478 22.8604 24.1749 26.4851 24.3367C26.7117 22.2052 27.6899 20.7779 29.5641 20.1689Z" fill="#D22856"/>
</svg>

<svg width="54" height="54" fill="none" xmlns="http://www.w3.org/2000/svg"><circle opacity=".1" cx="27" cy="27" r="25.5" fill="#fff" stroke="#283645" stroke-width="3"/><path d="M29.564 20.169a3.675 3.675 0 012.108-.029c.688.197 1.291.59 1.723 1.123.71-.21 1.41-.447 2.131-.656a2.03 2.03 0 01-.253.917c-.157.284-.38.533-.653.729.253.026.508-.002.747-.081.24-.08.456-.208.633-.376-.099.414-.3.801-.588 1.131-.287.33-.654.594-1.07.772-.247 6.27-3.367 10.467-10.689 10.296h-.504c-.443 0-4.418-.428-5.149-1.75 1.752.245 3.539-.147 4.984-1.095-1.03-.286-2.852-.447-3.161-2.74.388.133.81.163 1.215.085-1.277-.79-2.698-1.456-2.616-3.502a2.17 2.17 0 001.421.438c-.741-.228-2.09-3.121-.947-4.605 1.925 1.722 3.964 3.349 7.59 3.51.226-2.13 1.204-3.558 3.078-4.167z" fill="#D22856"/></svg>
